X:1770
T:Monemohill Reel
M:C|
L:1/8
C:Liz Carroll
R:reel
D:Liz Carroll: A Friend Indeed
Z:Devin McCabe
K:DMix
B|cDBD ABAG|E=F~E2 EDCD|d2 f/2g/2a gfdc|dcAG FDD^c|
!d2 f/2g/2a afdB|c/2d/2e cG E/2F/2G AG|=F^FDC A,/2B,/2C DE|DCA,G, C3B|
!cDBD ABAG|E=F~E2 EDCD|d2 f/2g/2a gfdc|dcAG FDDB|
!cDBD AD F/2E/2D|A,DFD G~C3|E/2F/2G GF [D3d3]d|fded cAGA|
!cDBD ABAG|E=F~E2 EDCD|d2 f/2g/2a gfdc|dcAG FDDB|
!cDBD AD F/2E/2D|A,DFD G~C3|E/2F/2G GF [D3d3]d|fged cAGA|
!ADBD ABAG|EC=FC EFEC|A,^CEA B^cAG|F/2E/2D E^C D2A^c|
!d2f/2g/2a afdB|c/2d/2e cG E/2F/2G AG|=F^FDC A,/2B,/2C DE|DCA,G, C3B|
!cDBD ABAG|E=F~E2 EDCD|d2 f/2g/2a gfdc|dcAG FDDB|
!d2f/2g/2a afdB|c/2d/2e cG E/2F/2G AG|=F^FD2- DC A,/2B,/2C|DCA,G, C3B|
!cDBD ABAG|E=F~E2 EDCD|d2 f/2g/2a gfdc|dcAG FDDB|
!cDBD AD F/2E/2D|A,DFD G~C3|E/2F/2G GF [D3d3]d|D/2E/2=F FE [C2E2]EG|
!cDBD ABAG|E=F~E2 EDCD|d2 f/2g/2a gfdc|dcAG FDDB|
!cDBD AD F/2E/2D|A,DFD G~C3|E/2F/2G GF [D3d3]d|fged cAGA|
!d2f/2g/2a gfdB|c2e/2=f/2g fecA|^CEA^c e/2f/2g ed|^c/2B/2A GE D4||
